!!!!SEGMENT: pl-kk--kk-i-277--002-003_anonim--rorate-caeli-et-in-terra.krn
!!!cenid: 16xx:1085
!!!COM: Anonim
!!!COM-rismid: pe30004985
!!!CDT:
!!!CNT:
!!!OPR: Rorate caeli
!!!OTL: Et in terra
!!!OMV: 003
!!!PDT:
!!!AGN: Sacred
!!!SMS-siglum: PL-Kk
!!!SMS-shelfmark: Kk.I.277
!!!SMS-shelfwork: 002-003 M
!!!SMS-variant:
!!!SMS-altvar:
!!!NIFC-rismid: 1001147188
!!!URL-scan: http://repozytorium.nifc.pl/skany/pl-kk-nut--i-277
!!!ONB-nifc: UWAGA: Introitus Secundi officii od str. 5. części: 1. Rorate caeli (Rorate caeli + Benedixisti + Gloria patri), 2. Kyrie, 3. Et in terra, 4. Tollite portas, 5. Alleluia, 6. Mittit ad virginem, 7. Ave Maria, 8. Sanctus, 9. Agnus Dei, 10. Ecce virgo
!!!key:
**kern	**text
*Itenor	*
*I"[Tenore]	*
*I'[T]	*
*clefC3	*
*k[]	*
*C:	*
*M2/1	*
*met(C)	*
=1-	=1-
!LO:TX:a:t=P:problem=inicjał E przed kluczem	!
1c	Et
*lig	*
1f	in
=2-	=2-
1e	.
*Xlig	*
*lig	*
1d	ter-
=3-	=3-
1c	.
*Xlig	*
*lig	*
1e	.
=4-	=4-
1f	.
*Xlig	*
1g,<	-ra
=5-	=5-
1g	pax
*lig	*
1f	ho-
=6-	=6-
1e	.
*Xlig	*
*lig	*
1d	.
=7-	=7-
1e	.
*Xlig	*
*lig	*
1f	-mi-
=8-	=8-
1e	.
*Xlig	*
1d	-ni-
=9-	=9-
0c,<	-bus
=10-	=10-
1G	bo-
1A	-nae
=11-	=11-
1c	vo-
*lig	*
1d	-lun-
=12-	=12-
1c	.
*Xlig	*
*lig	*
1B	.
=13-	=13-
1A	.
*Xlig	*
1G	.
!LO:LB:g=original	!
=14-	=14-
*lig	*
1A	-ta-
1B	.
*Xlig	*
=15-	=15-
1c,<	-tis
1d	lau-
=16-	=16-
1e	-da-
*lig	*
1f	.
=17-	=17-
1e	.
*Xlig	*
*lig	*
1d	.
=18-	=18-
1c	.
*Xlig	*
*lig	*
1d	-mus
=19-	=19-
1c	.
*Xlig	*
*lig	*
1A	te
=20-	=20-
1B	.
*Xlig	*
1G	Be-
=21-	=21-
1c	-ne-
*lig	*
1d	-di-
=22-	=22-
1c	.
*Xlig	*
1B	.
=23-	=23-
*lig	*
1A	-ci-
1G	.
*Xlig	*
=24-	=24-
*lig	*
1A	-mus
1B	.
*Xlig	*
=25-	=25-
!LO:TX:t=P:problem=kreska pseudotaktowa	!
1c	te
1e	A-
=26-	=26-
1A	-do-
1e	-ra-
=27-	=27-
*lig	*
1f	.
1e	.
!LO:LB:g=original	!
*Xlig	*
=28-	=28-
*lig	*
1d	.
1c	.
*Xlig	*
=29-	=29-
*lig	*
1d	-mus
1c	.
*Xlig	*
=30-	=30-
1A	.
*lig	*
1B	te
=31-	=31-
1c,<	.
*Xlig	*
1c	glo-
=32-	=32-
1d	-ri-
1c	-fi-
=33-	=33-
*lig	*
1d	-ca-
1e	.
*Xlig	*
=34-	=34-
*lig	*
1f	.
1e	.
*Xlig	*
=35-	=35-
1d	-mus
1c,<	te
=36-	=36-
1e	Gra-
1f	-ti-
=37-	=37-
1g	-as
*lig	*
1a	a-
=38-	=38-
1g	.
*Xlig	*
*lig	*
1f	-gi-
=39-	=39-
1e	.
*Xlig	*
1d	.
=40-	=40-
*lig	*
1e	-mus
1f	.
*Xlig	*
=41-	=41-
*custos:c	*
1g	ti-
!LO:LB:g=original	!
1c,<	-bi
=42-	=42-
1e	pro-
*lig	*
1A	-pter
=43-	=43-
1B	.
*Xlig	*
1G	ma-
=44-	=44-
1c,<	-gnam
*lig	*
1d	glo-
=45-	=45-
1c	.
*Xlig	*
*lig	*
1B	-ri-
=46-	=46-
1A	.
*Xlig	*
1G	-am
=47-	=47-
1A	tu-
1A,<	-am
=48-	=48-
1c	Do-
1G	-mi-
=49-	=49-
1c,<	-ne
1c	De-
=50-	=50-
*lig	*
1B	-us
1A	.
*Xlig	*
=51-	=51-
1G	Rex
1c	Cae-
=52-	=52-
*lig	*
1B	-le-
1c	.
*Xlig	*
=53-	=53-
1c,<	-ſtis
1d	De-
=54-	=54-
1f	-us
!LO:LB:g=original	!
1c	Pa-
=55-	=55-
*lig	*
1B	-ter,
1A	.
*Xlig	*
=56-	=56-
*lig	*
1G	o-
1A	.
*Xlig	*
=57-	=57-
1c	-mni-
*lig	*
1B	-po-
=58-	=58-
1A	.
*Xlig	*
1G	-tens
=59-	=59-
1A,<	.
1c	Do-
=60-	=60-
1G	-mi-
1c	-ne
=61-	=61-
1c	Fi-
1B,<	-li
=62-	=62-
1d	u-
1e	-ni-
=63-	=63-
*lig	*
1f	-ge-
1e	.
*Xlig	*
=64-	=64-
*lig	*
1d	-ni-
1c	.
*Xlig	*
=65-	=65-
1c	-te
1B	Je-
=66-	=66-
0d	-ſu
=67-	=67-
*lig	*
1G	Chri-
*custos:B	*
1c	.
!LO:PB:g=original	!
*Xlig	*
=68-	=68-
*lig	*
1B	.
1A	.
*Xlig	*
=69-	=69-
*lig	*
1G	.
1A	.
*Xlig	*
=70-	=70-
1B	.
1c,<	-ſte
=71-	=71-
1g	Do-
1f	-mi-
=72-	=72-
1e,<	-ne
1f	De-
=73-	=73-
*lig	*
1d	-us
1c	.
*Xlig	*
=74-	=74-
1d	A-
1e	-gnus
=75-	=75-
1g	De-
*lig	*
1a	.
=76-	=76-
1g	.
*Xlig	*
*lig	*
1f	.
=77-	=77-
1e	.
*Xlig	*
*lig	*
1f	-i
=78-	=78-
1g,<	.
*Xlig	*
1g	Fi-
=79-	=79-
1c	-li-
1c,<	-us
=80-	=80-
*lig	*
1B	Pa-
1c	.
*Xlig	*
=81-	=81-
1c,<	-tris
1c	Qui
=82-	=82-
*custos:d	*
1B	.
!LO:LB:g=original	!
1d	tol-
=83-	=83-
1c,<	-lis
*lig	*
1c	pec-
=84-	=84-
1B	-ca-
*Xlig	*
*lig	*
1A	-ta
=85-	=85-
1G	.
*Xlig	*
1A	mun-
=86-	=86-
1A	-di
1G	Mi-
=87-	=87-
1c	-ſe-
1c	-re-
=88-	=88-
1B	-re
1c	no-
=89-	=89-
1c,<	-bis
0e	Qui
=90-	=90-
.	.
1A	tol-
=91-	=91-
1e	-lis
*lig	*
1f	pec-
=92-	=92-
1e	.
*Xlig	*
1d	-ca-
=93-	=93-
1c	-ta
*lig	*
1e	mun-
=94-	=94-
1d	.
*Xlig	*
1e	-di
=95-	=95-
1A	ſuſ-
1A	-ci-
=96-	=96-
1e	-pe
!LO:LB:g=original	!
1f	de-
=97-	=97-
1d	-pre-
1c	-ca-
=98-	=98-
1B	-ti-
1d	-o-
=99-	=99-
1d	-nem
1c	no-
=100-	=100-
!LO:TX:t=P:problem=kreska pseudotaktowa	!
1c,<	-ſtram
1A	Qui
=101-	=101-
*lig	*
1B	.
1A	.
*Xlig	*
=102-	=102-
1G,<	.
1e	ſe-
=103-	=103-
*lig	*
1f	.
1e	.
*Xlig	*
=104-	=104-
*lig	*
1d	.
1c	.
*Xlig	*
=105-	=105-
1d	-des
1e,<	.
=106-	=106-
*lig	*
1e	ad
1f	.
*Xlig	*
=107-	=107-
1g,<	.
1g	dex-
=108-	=108-
1f	.
*lig	*
1e	-te-
=109-	=109-
1f	.
!LO:LB:g=original	!
*Xlig	*
1d	-ram
=110-	=110-
1c	Pa-
*lig	*
1e	.
=111-	=111-
1d	.
*Xlig	*
1e,<	-tris
=112-	=112-
1e	Mi-
*lig	*
1f	-ſe-
=113-	=113-
1e	.
*Xlig	*
1d	-re-
=114-	=114-
*lig	*
1c	.
1B	.
*Xlig	*
=115-	=115-
1d	-re
1c	no-
=116-	=116-
1c,<	-bis
1A	Quo-
=117-	=117-
1B	-ni-
1c	-am
=118-	=118-
1d	tu
*lig	*
1c	ſo-
=119-	=119-
1B	.
*Xlig	*
*lig	*
1A	.
=120-	=120-
1B	.
*Xlig	*
1G	-lus
=121-	=121-
*lig	*
1A	ſan-
1B	.
*Xlig	*
=122-	=122-
1c,<	-ctus
1e	tu
=123-	=123-
1A	ſo-
1e	-lus
!LO:LB:g=original	!
=124-	=124-
*lig	*
1f	Do-
1e	.
*Xlig	*
=125-	=125-
*lig	*
1d	.
1c	.
*Xlig	*
=126-	=126-
*lig	*
1B	-mi-
1c	.
*Xlig	*
=127-	=127-
1c,<	-nus
1g	tu
=128-	=128-
*lig	*
1a	.
1g,<	.
*Xlig	*
=129-	=129-
1c	ſo-
1e	-lus
=130-	=130-
*lig	*
1g	Al-
1a	.
*Xlig	*
=131-	=131-
1g	-tiſ-
1f	-si-
=132-	=132-
1e	-mus
1d,<	.
=133-	=133-
1e	Je-
1g	-ſu
=134-	=134-
*lig	*
1g	Chri-
1e	.
*Xlig	*
=135-	=135-
!LO:TX:t=P:problem=kreska pseudotaktowa	!
1c	-ſte
0g	Cum
=136-	=136-
.	.
*lig	*
1e	ſan-
=137-	=137-
1f	.
*Xlig	*
1g	-cto
!LO:LB:g=original	!
=138-	=138-
*lig	*
1a	ſpi-
1g	.
*Xlig	*
=139-	=139-
*lig	*
1f	-ri-
1e	.
*Xlig	*
=140-	=140-
1f	-tu
1g,<	in
=141-	=141-
1e	glo-
1g	.
=142-	=142-
*lig	*
1f	.
1e	.
*Xlig	*
=143-	=143-
*lig	*
1d	-ri-
1c	.
*Xlig	*
=144-	=144-
1d	.
*lig	*
1A	-a
=145-	=145-
1B	.
*Xlig	*
1G	De-
=146-	=146-
1A	-i
1c	Pa-
=147-	=147-
*lig	*
1d	.
1c	.
*Xlig	*
=148-	=148-
*lig	*
1B	.
1A	.
*Xlig	*
=149-	=149-
1G	.
*lig	*
1A	.
=150-	=150-
1c	.
*Xlig	*
*lig	*
1d	.
=151-	=151-
1e	.
*Xlig	*
*lig	*
1f	.
=152-	=152-
1e	.
*Xlig	*
*lig	*
1d	-tris
=153-	=153-
1c	.
!LO:LB:g=original	!
*Xlig	*
1B	A-
=154-	=154-
1d	.
*lig	*
1e	.
=155-	=155-
1d	.
*Xlig	*
1c	.
=156-	=156-
1B	.
1c	.
=157-	=157-
0c;;l	-men
=-	=-
*-	*-
!!!RDF**kern: l = terminal long
!!!RDF**kern: > = above
!!!RDF**kern: < = below
!!!EED: Antoni Szymański
!!!EST: 2021-03-28
!!!AIN: 1 tenor
!!!ENC: Tomasz Grochalski
!!!END: 2021-03-14
